images/y-icon.svg

<svg width="41" height="41" viewBox="0 0 41 41" fill="none" xmlns="http://www.w3.org/2000/svg">
<rect width="41" height="41" rx="8" fill="#FF0000"/>
<path d="M21.6422 23.3356L18.38 31H16L19.5833 22.8044C17.8989 21.9089 16.7756 20.2867 16.7756 17.2933C16.7756 13.0978 19.3156 11 22.3367 11H25.4122V31H23.3533V23.3356H21.6422ZM23.3533 12.8178H22.2567C20.5989 12.8178 18.9944 13.9656 18.9944 17.2933C18.9944 20.51 20.4656 21.5456 22.2567 21.5456H23.3533V12.8178Z" fill="white"/>
</svg>

<svg xmlns="http://www.w3.org/2000/svg" width="41" height="41" fill="none"><rect width="41" height="41" fill="red" rx="8"/><path fill="#fff" d="M21.642 23.336 18.38 31H16l3.583-8.196c-1.684-.895-2.807-2.517-2.807-5.51 0-4.196 2.54-6.294 5.56-6.294h3.076v20h-2.059v-7.664h-1.71Zm1.711-10.518h-1.096c-1.658 0-3.263 1.148-3.263 4.475 0 3.217 1.472 4.253 3.263 4.253h1.096v-8.728Z"/></svg>
